src/assets/advantages/map-icon.svg

<svg width="52" height="52" viewBox="0 0 52 52" fill="none" xmlns="http://www.w3.org/2000/svg">
<path d="M22.7587 23.2725H17.459" stroke="#F2C247" stroke-linecap="round" stroke-linejoin="round"/>
<path d="M3.42969 43.2527V23.8037C3.42969 20.2232 6.93613 17.2778 11.1981 17.2778C13.6883 17.2778 16.0321 18.2828 17.4927 19.9766V39.4256C16.0321 37.7318 13.6883 36.7268 11.1981 36.7268C6.93613 36.7268 3.42969 39.6722 3.42969 43.2527ZM3.42969 43.2527C3.42969 46.8332 6.89889 49.7491 11.1396 49.7759H48.3218V23.4794H40.2447" stroke="#F2C247" stroke-linecap="round" stroke-linejoin="round"/>
<path d="M43.9571 12.3575C43.9571 18.004 33.8253 35.2619 33.8253 35.2619C33.8253 35.2619 23.6934 18.004 23.6934 12.3575C23.6934 6.71099 28.23 2.13281 33.8253 2.13281C39.4205 2.13281 43.9571 6.71099 43.9571 12.3575Z" stroke="#F2C247" stroke-linecap="round" stroke-linejoin="round"/>
<path d="M33.9817 16.9619C36.3921 16.9619 38.3462 14.9842 38.3462 12.5446C38.3462 10.1051 36.3921 8.12744 33.9817 8.12744C31.5712 8.12744 29.6172 10.1051 29.6172 12.5446C29.6172 14.9842 31.5712 16.9619 33.9817 16.9619Z" stroke="#F2C247" stroke-linecap="round" stroke-linejoin="round"/>
</svg>

<svg xmlns="http://www.w3.org/2000/svg" width="52" height="52" fill="none" viewBox="0 0 52 52">
    <path stroke="#F2C247" stroke-linecap="round" stroke-linejoin="round" d="M22.759 23.273h-5.3M3.43 43.253v-19.45c0-3.58 3.506-6.525 7.768-6.525 2.49 0 4.834 1.005 6.295 2.699v19.449c-1.46-1.694-3.805-2.7-6.295-2.7-4.262 0-7.768 2.946-7.768 6.527Zm0 0c0 3.58 3.469 6.496 7.71 6.523h37.182V23.479h-8.077"/>
    <path stroke="#F2C247" stroke-linecap="round" stroke-linejoin="round" d="M43.957 12.357c0 5.647-10.132 22.905-10.132 22.905S23.693 18.004 23.693 12.358c0-5.647 4.537-10.225 10.132-10.225S43.957 6.71 43.957 12.357Z"/>
    <path stroke="#F2C247" stroke-linecap="round" stroke-linejoin="round" d="M33.982 16.962c2.41 0 4.364-1.978 4.364-4.417 0-2.44-1.954-4.418-4.364-4.418s-4.365 1.978-4.365 4.418c0 2.44 1.954 4.417 4.365 4.417Z"/>
</svg>
